;FLAVOR:UltiGCode
;TIME:10354
;MATERIAL:20829
;MATERIAL2:0
;NOZZLE_DIAMETER:0.4
;MINX:27.515
;MINY:14.942
;MINZ:0.27
;MAXX:195.485
;MAXY:208.058
;MAXZ:3.12
;Generated with Cura_SteamEngine main
M82 ;absolute extrusion mode
G0 F3000 Y50 ;avoid prime blob
G92 E0
G92 E0
G10
;LAYER_COUNT:20
;LAYER:0
M107
G0 F4500 X31.923 Y18.959 Z0.27
G0 X30.944 Y22.742
;TYPE:SKIRT
G11
G1 F1800 X30.984 Y21.953 E0.08532
G1 X31.103 Y21.173 E0.17054
G1 X31.301 Y20.408 E0.25588
G1 X31.575 Y19.668 E0.3411
G1 X31.923 Y18.959 E0.4264
G1 X32.341 Y18.288 E0.51178
G1 X32.824 Y17.664 E0.597
G1 X33.367 Y17.091 E0.68226
G1 X33.966 Y16.576 E0.76757
G1 X34.614 Y16.125 E0.85284
G1 X35.305 Y15.741 E0.93822
G1 X36.03 Y15.429 E1.02346
G1 X36.783 Y15.192 E1.10872
G1 X37.557 Y15.033 E1.19405
G1 X38.439 Y14.942 E1.28981
G1 X184.256 Y14.942 E17.03805
G1 X185.045 Y14.982 E17.12337
G1 X185.825 Y15.101 E17.20859
G1 X186.59 Y15.299 E17.29393
G1 X187.33 Y15.573 E17.37915
G1 X188.039 Y15.921 E17.46445
G1 X188.71 Y16.339 E17.54983
G1 X189.334 Y16.822 E17.63505
G1 X189.907 Y17.365 E17.72031
G1 X190.422 Y17.964 E17.80562
G1 X190.873 Y18.612 E17.89089
G1 X191.257 Y19.303 E17.97627
G1 X191.569 Y20.028 E18.06151
G1 X191.806 Y20.781 E18.14677
G1 X191.965 Y21.555 E18.2321
G1 X192.056 Y22.437 E18.32786
G1 X192.056 Y86.76 E25.27475
G1 X192.763 Y87.307 E25.37129
G1 X193.336 Y87.85 E25.45655
G1 X193.851 Y88.449 E25.54186
G1 X194.302 Y89.097 E25.62713
G1 X194.686 Y89.788 E25.7125
G1 X194.998 Y90.513 E25.79775
G1 X195.235 Y91.266 E25.883
G1 X195.394 Y92.04 E25.96834
G1 X195.485 Y92.922 E26.0641
G1 X195.485 Y104.627 E27.32824
G1 X195.445 Y105.416 E27.41356
G1 X195.326 Y106.196 E27.49878
G1 X195.128 Y106.961 E27.58412
G1 X194.854 Y107.701 E27.66934
G1 X194.506 Y108.41 E27.75464
G1 X194.088 Y109.081 E27.84002
G1 X193.605 Y109.705 E27.92524
G1 X193.062 Y110.278 E28.0105
G1 X192.463 Y110.793 E28.09582
G1 X192.056 Y111.076 E28.14935
G1 X192.056 Y175.66 E35.12443
G1 X192.763 Y176.207 E35.22097
G1 X193.336 Y176.75 E35.30622
G1 X193.851 Y177.349 E35.39154
G1 X194.302 Y177.997 E35.4768
G1 X194.686 Y178.688 E35.56218
G1 X194.998 Y179.413 E35.64742
G1 X195.235 Y180.166 E35.73268
G1 X195.394 Y180.94 E35.81802
G1 X195.485 Y181.822 E35.91378
G1 X195.485 Y200.258 E37.90487
G1 X195.445 Y201.047 E37.99019
G1 X195.326 Y201.827 E38.0754
G1 X195.128 Y202.592 E38.16075
G1 X194.854 Y203.332 E38.24597
G1 X194.506 Y204.041 E38.33127
G1 X194.088 Y204.712 E38.41665
G1 X193.605 Y205.336 E38.50187
G1 X193.062 Y205.909 E38.58713
G1 X192.463 Y206.424 E38.67244
G1 X191.815 Y206.875 E38.75771
G1 X191.124 Y207.259 E38.84308
G1 X190.399 Y207.571 E38.92833
G1 X189.646 Y207.808 E39.01358
G1 X188.872 Y207.967 E39.09892
G1 X187.99 Y208.058 E39.19468
G1 X35.315 Y208.058 E55.68358
G1 X34.526 Y208.018 E55.7689
G1 X33.746 Y207.899 E55.85412
G1 X32.981 Y207.701 E55.93946
G1 X32.241 Y207.427 E56.02468
G1 X31.532 Y207.079 E56.10998
G1 X30.861 Y206.661 E56.19536
G1 X30.237 Y206.178 E56.28058
G1 X29.664 Y205.635 E56.36584
G1 X29.149 Y205.036 E56.45116
G1 X28.698 Y204.388 E56.53642
G1 X28.314 Y203.697 E56.6218
G1 X28.002 Y202.972 E56.70704
G1 X27.765 Y202.219 E56.7923
G1 X27.606 Y201.445 E56.87764
G1 X27.515 Y200.563 E56.9734
G1 X27.515 Y182.127 E58.96448
G1 X27.555 Y181.338 E59.04981
G1 X27.674 Y180.558 E59.13502
G1 X27.872 Y179.793 E59.22036
G1 X28.146 Y179.053 E59.30559
G1 X28.494 Y178.344 E59.39088
G1 X28.912 Y177.673 E59.47626
G1 X29.395 Y177.049 E59.56149
G1 X29.938 Y176.476 E59.64674
G1 X30.537 Y175.961 E59.73206
G1 X30.944 Y175.678 E59.7856
G1 X30.944 Y111.094 E66.76067
G1 X30.237 Y110.547 E66.85721
G1 X29.664 Y110.004 E66.94247
G1 X29.149 Y109.405 E67.02778
G1 X28.698 Y108.757 E67.11305
G1 X28.314 Y108.066 E67.19842
G1 X28.002 Y107.341 E67.28367
G1 X27.765 Y106.588 E67.36892
G1 X27.606 Y105.814 E67.45426
G1 X27.515 Y104.932 E67.55002
G1 X27.515 Y93.227 E68.81416
G1 X27.555 Y92.438 E68.89948
G1 X27.674 Y91.658 E68.9847
G1 X27.872 Y90.893 E69.07004
G1 X28.146 Y90.153 E69.15526
G1 X28.494 Y89.444 E69.24056
G1 X28.912 Y88.773 E69.32594
G1 X29.395 Y88.149 E69.41116
G1 X29.938 Y87.576 E69.49642
G1 X30.537 Y87.061 E69.58173
G1 X30.944 Y86.778 E69.63527
G1 X30.944 Y22.742 E76.55116
G0 F4500 X31.344 Y22.742
G1 F1800 X31.384 Y21.974 E76.63422
G1 X31.503 Y21.214 E76.7173
G1 X31.701 Y20.471 E76.80034
G1 X31.975 Y19.752 E76.88344
G1 X32.322 Y19.066 E76.96647
G1 X32.738 Y18.419 E77.04954
G1 X33.219 Y17.819 E77.13259
G1 X33.76 Y17.272 E77.21568
G1 X34.355 Y16.784 E77.29879
G1 X34.997 Y16.361 E77.38182
G1 X35.68 Y16.006 E77.46496
G1 X36.395 Y15.725 E77.54793
G1 X37.137 Y15.519 E77.63109
G1 X37.895 Y15.391 E77.71412
G1 X38.744 Y15.342 E77.80596
G1 X184.256 Y15.342 E93.52126
G1 X185.024 Y15.382 E93.60431
G1 X185.784 Y15.501 E93.68739
G1 X186.527 Y15.699 E93.77044
G1 X187.246 Y15.973 E93.85354
G1 X187.932 Y16.32 E93.93656
G1 X188.579 Y16.736 E94.01964
G1 X189.179 Y17.217 E94.10269
G1 X189.726 Y17.758 E94.18578
G1 X190.214 Y18.353 E94.26889
G1 X190.637 Y18.995 E94.35192
G1 X190.992 Y19.678 E94.43505
G1 X191.273 Y20.393 E94.51802
G1 X191.479 Y21.135 E94.60119
G1 X191.607 Y21.893 E94.68421
G1 X191.656 Y22.742 E94.77606
G1 X191.656 Y86.995 E101.71538
G1 X192.008 Y87.221 E101.76056
G1 X192.608 Y87.702 E101.84361
G1 X193.155 Y88.243 E101.9267
G1 X193.643 Y88.838 E102.00981
G1 X194.066 Y89.48 E102.09284
G1 X194.421 Y90.163 E102.17597
G1 X194.702 Y90.878 E102.25894
G1 X194.908 Y91.62 E102.34211
G1 X195.036 Y92.378 E102.42513
G1 X195.085 Y93.227 E102.51698
G1 X195.085 Y104.627 E103.74818
G1 X195.045 Y105.395 E103.83124
G1 X194.926 Y106.155 E103.91432
G1 X194.728 Y106.898 E103.99736
G1 X194.454 Y107.617 E104.08046
G1 X194.107 Y108.303 E104.16349
G1 X193.691 Y108.95 E104.24656
G1 X193.21 Y109.55 E104.32961
G1 X192.669 Y110.097 E104.4127
G1 X192.074 Y110.585 E104.49581
G1 X191.656 Y110.86 E104.54985
G1 X191.656 Y175.895 E111.57363
G1 X192.008 Y176.121 E111.6188
G1 X192.608 Y176.602 E111.70186
G1 X193.155 Y177.143 E111.78495
G1 X193.643 Y177.738 E111.86805
G1 X194.066 Y178.38 E111.95109
G1 X194.421 Y179.063 E112.03422
G1 X194.702 Y179.778 E112.11719
G1 X194.908 Y180.52 E112.20036
G1 X195.036 Y181.278 E112.28338
G1 X195.085 Y182.127 E112.37522
G1 X195.085 Y200.258 E114.33337
G1 X195.045 Y201.026 E114.41643
G1 X194.926 Y201.786 E114.49951
G1 X194.728 Y202.529 E114.58255
G1 X194.454 Y203.248 E114.66565
G1 X194.107 Y203.934 E114.74868
G1 X193.691 Y204.581 E114.83175
G1 X193.21 Y205.181 E114.9148
G1 X192.669 Y205.728 E114.99789
G1 X192.074 Y206.216 E115.081
G1 X191.432 Y206.639 E115.16404
G1 X190.749 Y206.994 E115.24717
G1 X190.034 Y207.275 E115.33014
G1 X189.292 Y207.481 E115.41331
G1 X188.534 Y207.609 E115.49633
G1 X187.685 Y207.658 E115.58817
G1 X35.315 Y207.658 E132.04413
G1 X34.547 Y207.618 E132.12719
G1 X33.787 Y207.499 E132.21027
G1 X33.044 Y207.301 E132.29331
G1 X32.325 Y207.027 E132.37641
G1 X31.639 Y206.68 E132.45944
G1 X30.992 Y206.264 E132.54251
G1 X30.392 Y205.783 E132.62557
G1 X29.845 Y205.242 E132.70865
G1 X29.357 Y204.647 E132.79176
G1 X28.934 Y204.005 E132.8748
G1 X28.579 Y203.322 E132.95793
G1 X28.298 Y202.607 E133.0409
G1 X28.092 Y201.865 E133.12407
G1 X27.964 Y201.107 E133.20709
G1 X27.915 Y200.258 E133.29893
G1 X27.915 Y182.127 E135.25708
G1 X27.955 Y181.359 E135.34014
G1 X28.074 Y180.599 E135.42322
G1 X28.272 Y179.856 E135.50626
G1 X28.546 Y179.137 E135.58936
G1 X28.893 Y178.451 E135.67239
G1 X29.309 Y177.804 E135.75546
G1 X29.79 Y177.204 E135.83851
G1 X30.331 Y176.657 E135.9216
G1 X30.926 Y176.169 E136.00471
G1 X31.344 Y175.894 E136.05875
G1 X31.344 Y110.859 E143.08253
G1 X30.992 Y110.633 E143.12771
G1 X30.392 Y110.152 E143.21076
G1 X29.845 Y109.611 E143.29385
G1 X29.357 Y109.016 E143.37696
G1 X28.934 Y108.374 E143.45999
G1 X28.579 Y107.691 E143.54312
G1 X28.298 Y106.976 E143.62609
G1 X28.092 Y106.234 E143.70926
G1 X27.964 Y105.476 E143.79228
G1 X27.915 Y104.627 E143.88413
G1 X27.915 Y93.227 E145.11533
G1 X27.955 Y92.459 E145.19838
G1 X28.074 Y91.699 E145.28146
G1 X28.272 Y90.956 E145.36451
G1 X28.546 Y90.237 E145.44761
G1 X28.893 Y89.551 E145.53063
G1 X29.309 Y88.904 E145.61371
G1 X29.79 Y88.304 E145.69676
G1 X30.331 Y87.757 E145.77985
G1 X30.926 Y87.269 E145.86296
G1 X31.344 Y86.994 E145.917
G1 X31.344 Y22.742 E152.85621
G0 F4500 X31.744 Y22.742
G1 F1800 X31.784 Y21.995 E152.937
G1 X31.903 Y21.257 E153.01774
G1 X32.101 Y20.535 E153.09859
G1 X32.374 Y19.839 E153.17934
G1 X32.721 Y19.176 E153.26015
G1 X33.136 Y18.553 E153.341
G1 X33.615 Y17.979 E153.42174
G1 X34.152 Y17.458 E153.50255
G1 X34.742 Y16.999 E153.58328
G1 X35.378 Y16.604 E153.66414
G1 X36.052 Y16.28 E153.7449
G1 X36.757 Y16.03 E153.82569
G1 X37.485 Y15.856 E153.90653
G1 X38.375 Y15.742 E154.00343
G1 X184.256 Y15.742 E169.75858
G1 X185.003 Y15.782 E169.83937
G1 X185.741 Y15.901 E169.9201
G1 X186.463 Y16.099 E170.00096
G1 X187.159 Y16.372 E170.0817
G1 X187.822 Y16.719 E170.16252
G1 X188.445 Y17.134 E170.24337
G1 X189.019 Y17.613 E170.32411
G1 X189.54 Y18.15 E170.40491
G1 X189.999 Y18.74 E170.48565
G1 X190.394 Y19.376 E170.5665
G1 X190.718 Y20.05 E170.64727
G1 X190.968 Y20.755 E170.72805
G1 X191.142 Y21.483 E170.80889
G1 X191.256 Y22.373 E170.9058
G1 X191.256 Y87.207 E177.90787
G1 X191.874 Y87.619 E177.98809
G1 X192.448 Y88.098 E178.06883
G1 X192.969 Y88.635 E178.14963
G1 X193.428 Y89.225 E178.23037
G1 X193.823 Y89.861 E178.31122
G1 X194.147 Y90.535 E178.39199
G1 X194.397 Y91.24 E178.47277
G1 X194.571 Y91.968 E178.55361
G1 X194.685 Y92.858 E178.65052
G1 X194.685 Y104.627 E179.92157
G1 X194.645 Y105.374 E180.00236
G1 X194.526 Y106.112 E180.0831
G1 X194.328 Y106.834 E180.16395
G1 X194.055 Y107.53 E180.24469
G1 X193.708 Y108.193 E180.32551
G1 X193.293 Y108.816 E180.40636
G1 X192.814 Y109.39 E180.4871
G1 X192.277 Y109.911 E180.56791
G1 X191.687 Y110.37 E180.64864
G1 X191.256 Y110.638 E180.70345
G1 X191.256 Y176.107 E187.7741
G1 X191.874 Y176.519 E187.85432
G1 X192.448 Y176.998 E187.93506
G1 X192.969 Y177.535 E188.01587
G1 X193.428 Y178.125 E188.0966
G1 X193.823 Y178.761 E188.17746
G1 X194.147 Y179.435 E188.25822
G1 X194.397 Y180.14 E188.33901
G1 X194.571 Y180.868 E188.41985
G1 X194.685 Y181.758 E188.51675
G1 X194.685 Y200.258 E190.51475
G1 X194.645 Y201.005 E190.59554
G1 X194.526 Y201.743 E190.67628
G1 X194.328 Y202.465 E190.75713
G1 X194.055 Y203.161 E190.83787
G1 X193.708 Y203.824 E190.91869
G1 X193.293 Y204.447 E190.99954
G1 X192.814 Y205.021 E191.08028
G1 X192.277 Y205.542 E191.16109
G1 X191.687 Y206.001 E191.24182
G1 X191.051 Y206.396 E191.32267
G1 X190.377 Y206.72 E191.40344
G1 X189.672 Y206.97 E191.48423
G1 X188.944 Y207.144 E191.56506
G1 X188.054 Y207.258 E191.66197
G1 X35.315 Y207.258 E208.15778
G1 X34.568 Y207.218 E208.23857
G1 X33.83 Y207.099 E208.31931
G1 X33.108 Y206.901 E208.40016
G1 X32.412 Y206.628 E208.48091
G1 X31.749 Y206.281 E208.56172
G1 X31.126 Y205.866 E208.64257
G1 X30.552 Y205.387 E208.72331
G1 X30.031 Y204.85 E208.80412
G1 X29.572 Y204.26 E208.88485
G1 X29.177 Y203.624 E208.96571
G1 X28.853 Y202.95 E209.04647
G1 X28.603 Y202.245 E209.12726
G1 X28.429 Y201.517 E209.2081
G1 X28.315 Y200.627 E209.305
G1 X28.315 Y182.127 E211.303
G1 X28.355 Y181.38 E211.38379
G1 X28.474 Y180.642 E211.46453
G1 X28.672 Y179.92 E211.54538
G1 X28.945 Y179.224 E211.62613
G1 X29.292 Y178.561 E211.70694
G1 X29.707 Y177.938 E211.78779
G1 X30.186 Y177.364 E211.86853
G1 X30.723 Y176.843 E211.94934
G1 X31.313 Y176.384 E212.03007
G1 X31.744 Y176.116 E212.08488
G1 X31.744 Y110.647 E219.15553
G1 X31.126 Y110.235 E219.23575
G1 X30.552 Y109.756 E219.31649
G1 X30.031 Y109.219 E219.3973
G1 X29.572 Y108.629 E219.47803
G1 X29.177 Y107.993 E219.55889
G1 X28.853 Y107.319 E219.63965
G1 X28.603 Y106.614 E219.72044
G1 X28.429 Y105.886 E219.80128
G1 X28.315 Y104.996 E219.89818
G1 X28.315 Y93.227 E221.16923
G1 X28.355 Y92.48 E221.25003
G1 X28.474 Y91.742 E221.33076
G1 X28.672 Y91.02 E221.41161
G1 X28.945 Y90.324 E221.49236
G1 X29.292 Y89.661 E221.57318
G1 X29.707 Y89.038 E221.65402
G1 X30.186 Y88.464 E221.73476
G1 X30.723 Y87.943 E221.81557
G1 X31.313 Y87.484 E221.8963
G1 X31.744 Y87.216 E221.95111
G1 X31.744 Y22.742 E228.91431
G0 F4500 X32.144 Y22.742
G1 F1800 X32.184 Y22.017 E228.99272
G1 X32.303 Y21.3 E229.07122
G1 X32.501 Y20.601 E229.14968
G1 X32.774 Y19.928 E229.22812
G1 X33.119 Y19.289 E229.30655
G1 X33.533 Y18.692 E229.38501
G1 X34.009 Y18.144 E229.4634
G1 X34.543 Y17.651 E229.54189
G1 X35.128 Y17.221 E229.62031
G1 X35.757 Y16.857 E229.69879
G1 X36.422 Y16.564 E229.77727
G1 X37.115 Y16.346 E229.85573
G1 X37.827 Y16.206 E229.9341
G1 X38.744 Y16.142 E230.03338
G1 X184.256 Y16.142 E245.74868
G1 X184.981 Y16.182 E245.82709
G1 X185.698 Y16.301 E245.90559
G1 X186.397 Y16.499 E245.98405
G1 X187.07 Y16.772 E246.06249
G1 X187.709 Y17.117 E246.14092
G1 X188.306 Y17.531 E246.21938
G1 X188.854 Y18.007 E246.29777
G1 X189.347 Y18.541 E246.37626
G1 X189.777 Y19.126 E246.45468
G1 X190.141 Y19.755 E246.53316
G1 X190.434 Y20.42 E246.61165
G1 X190.652 Y21.113 E246.6901
G1 X190.792 Y21.825 E246.76847
G1 X190.856 Y22.742 E246.86775
G1 X190.856 Y87.45 E253.85621
G1 X191.138 Y87.602 E253.89081
G1 X191.735 Y88.016 E253.96927
G1 X192.283 Y88.492 E254.04767
G1 X192.776 Y89.026 E254.12616
G1 X193.206 Y89.611 E254.20457
G1 X193.57 Y90.24 E254.28306
G1 X193.863 Y90.905 E254.36154
G1 X194.081 Y91.598 E254.44
G1 X194.221 Y92.31 E254.51837
G1 X194.285 Y93.227 E254.61765
G1 X194.285 Y104.627 E255.84885
G1 X194.245 Y105.352 E255.92727
G1 X194.126 Y106.069 E256.00576
G1 X193.928 Y106.768 E256.08422
G1 X193.655 Y107.441 E256.16266
G1 X193.31 Y108.08 E256.24109
G1 X192.896 Y108.677 E256.31955
G1 X192.42 Y109.225 E256.39794
G1 X191.886 Y109.718 E256.47643
G1 X191.301 Y110.148 E256.55485
G1 X190.856 Y110.406 E256.6104
G1 X190.856 Y176.35 E263.73235
G1 X191.138 Y176.502 E263.76695
G1 X191.735 Y176.916 E263.84541
G1 X192.283 Y177.392 E263.92381
G1 X192.776 Y177.926 E264.0023
G1 X193.206 Y178.511 E264.08071
G1 X193.57 Y179.14 E264.1592
G1 X193.863 Y179.805 E264.23768
G1 X194.081 Y180.498 E264.31614
G1 X194.221 Y181.21 E264.39451
G1 X194.285 Y182.127 E264.49378
G1 X194.285 Y200.258 E266.45193
G1 X194.245 Y200.983 E266.53035
G1 X194.126 Y201.7 E266.60885
G1 X193.928 Y202.399 E266.68731
G1 X193.655 Y203.072 E266.76574
G1 X193.31 Y203.711 E266.84417
G1 X192.896 Y204.308 E266.92263
G1 X192.42 Y204.856 E267.00103
G1 X191.886 Y205.349 E267.07952
G1 X191.301 Y205.779 E267.15793
G1 X190.672 Y206.143 E267.23642
G1 X190.007 Y206.436 E267.3149
G1 X189.314 Y206.654 E267.39336
G1 X188.602 Y206.794 E267.47173
G1 X187.685 Y206.858 E267.57101
G1 X35.315 Y206.858 E284.02697
G1 X34.59 Y206.818 E284.10539
G1 X33.873 Y206.699 E284.18388
G1 X33.174 Y206.501 E284.26234
G1 X32.501 Y206.228 E284.34078
G1 X31.862 Y205.883 E284.41921
G1 X31.265 Y205.469 E284.49767
G1 X30.717 Y204.993 E284.57606
G1 X30.224 Y204.459 E284.65455
G1 X29.794 Y203.874 E284.73297
G1 X29.43 Y203.245 E284.81145
G1 X29.137 Y202.58 E284.88994
G1 X28.919 Y201.887 E284.9684
G1 X28.779 Y201.175 E285.04676
G1 X28.715 Y200.258 E285.14604
G1 X28.715 Y182.127 E287.10419
G1 X28.755 Y181.402 E287.18261
G1 X28.874 Y180.685 E287.2611
G1 X29.072 Y179.986 E287.33957
G1 X29.345 Y179.313 E287.418
G1 X29.69 Y178.674 E287.49643
G1 X30.104 Y178.077 E287.57489
G1 X30.58 Y177.529 E287.65329
G1 X31.114 Y177.036 E287.73178
G1 X31.699 Y176.606 E287.81019
G1 X32.144 Y176.348 E287.86574
G1 X32.144 Y110.404 E294.98769
G1 X31.862 Y110.252 E295.02229
G1 X31.265 Y109.838 E295.10075
G1 X30.717 Y109.362 E295.17915
G1 X30.224 Y108.828 E295.25764
G1 X29.794 Y108.243 E295.33605
G1 X29.43 Y107.614 E295.41454
G1 X29.137 Y106.949 E295.49302
G1 X28.919 Y106.256 E295.57148
