;FLAVOR:UltiGCode
;TIME:16860
;MATERIAL:30437
;MATERIAL2:0
;NOZZLE_DIAMETER:0.4
;MINX:33.509
;MINY:24.907
;MINZ:0.27
;MAXX:192.279
;MAXY:173.898
;MAXZ:1.62
;Generated with Cura_SteamEngine main
M82 ;absolute extrusion mode
G0 F3000 Y50 ;avoid prime blob
G92 E0
G92 E0
G10
;LAYER_COUNT:10
;LAYER:0
M107
G0 F4500 X37.596 Y26.185 Z0.27
G0 X36.938 Y28.733
;TYPE:SKIRT
G11
G1 F1800 X36.953 Y27.732 E0.10812
G1 X37.122 Y27.075 E0.18139
G1 X37.596 Y26.185 E0.29029
G1 X38.323 Y25.487 E0.39913
G1 X39.231 Y25.05 E0.50796
G1 X39.726 Y24.944 E0.56264
G1 X40.378 Y24.908 E0.63316
G1 X184.989 Y24.907 E16.25115
G1 X186.026 Y24.922 E16.36316
G1 X186.68 Y25.09 E16.43608
G1 X187.144 Y25.292 E16.49074
G1 X187.948 Y25.899 E16.59954
G1 X188.268 Y26.29 E16.6541
G1 X188.706 Y27.198 E16.76298
G1 X188.849 Y28.138 E16.86567
G1 X188.85 Y34.133 E17.51313
G1 X188.89 Y36.93 E17.81523
G1 X189.005 Y39.647 E18.10893
G1 X189.2 Y42.393 E18.40625
G1 X189.468 Y45.099 E18.69993
G1 X189.816 Y47.822 E18.9964
G1 X190.241 Y50.523 E19.2917
G1 X190.744 Y53.231 E19.58917
G1 X191.307 Y55.849 E19.87837
G1 X192.008 Y58.701 E20.19556
G1 X192.165 Y59.305 E20.26296
G1 X192.278 Y60.084 E20.34797
G1 X192.279 Y170.002 E32.21911
G1 X192.266 Y171.068 E32.33425
G1 X192.099 Y171.722 E32.40715
G1 X191.627 Y172.613 E32.51604
G1 X191.292 Y172.992 E32.57067
G1 X190.466 Y173.569 E32.67949
G1 X189.501 Y173.86 E32.78835
G1 X188.839 Y173.897 E32.85996
G1 X37.375 Y173.898 E49.21807
G1 X36.34 Y173.885 E49.32986
G1 X35.683 Y173.717 E49.4031
G1 X35.219 Y173.516 E49.45771
G1 X34.414 Y172.91 E49.56653
G1 X34.093 Y172.519 E49.62116
G1 X33.654 Y171.612 E49.72999
G1 X33.51 Y170.665 E49.83344
G1 X33.509 Y60.768 E61.70232
G1 X33.52 Y60.061 E61.77868
G1 X33.612 Y59.351 E61.856
G1 X33.781 Y58.66 E61.93283
G1 X34.157 Y57.215 E62.09409
G1 X34.776 Y54.522 E62.39252
G1 X35.316 Y51.82 E62.6901
G1 X35.774 Y49.146 E62.9831
G1 X36.156 Y46.456 E63.27654
G1 X36.466 Y43.721 E63.57381
G1 X36.698 Y40.978 E63.87111
G1 X36.851 Y38.257 E64.16544
G1 X36.938 Y34.18 E64.60586
G1 X36.938 Y28.733 E65.19413
G10
;MESH:2xshelf.STL
G0 F4500 X48.903 Y43.122
G0 X49.44 Y44.264
;TYPE:WALL-OUTER
G11
G1 F1800 X49.488 Y43.112 E65.31866
G1 X49.716 Y42.058 E65.43512
G1 X50.143 Y40.997 E65.55864
G1 X50.728 Y40.051 E65.67877
G1 X51.448 Y39.233 E65.79646
G1 X52.336 Y38.518 E65.91959
G1 X53.308 Y37.978 E66.03967
G1 X54.365 Y37.607 E66.16066
G1 X55.505 Y37.411 E66.28558
G1 X56.577 Y37.426 E66.40137
G1 X57.63 Y37.607 E66.51676
G1 X58.688 Y37.978 E66.63785
G1 X59.66 Y38.518 E66.75794
G1 X60.552 Y39.237 E66.88167
G1 X61.285 Y40.075 E67.00191
G1 X61.853 Y40.995 E67.11869
G1 X62.276 Y42.04 E67.24044
G1 X62.511 Y43.13 E67.36087
G1 X62.556 Y44.261 E67.48311
G1 X62.416 Y45.349 E67.60158
G1 X62.089 Y46.417 E67.72221
G1 X61.589 Y47.408 E67.84209
G1 X60.933 Y48.3 E67.96167
G1 X60.136 Y49.064 E68.08091
G1 X59.2 Y49.699 E68.20307
G1 X58.184 Y50.158 E68.32347
G1 X57.11 Y50.437 E68.44331
G1 X55.98 Y50.532 E68.56579
G1 X54.886 Y50.437 E68.68438
G1 X53.811 Y50.158 E68.80433
G1 X52.796 Y49.699 E68.92464
G1 X51.887 Y49.085 E69.04311
G1 X51.06 Y48.292 E69.16685
G1 X50.398 Y47.392 E69.28751
G1 X49.901 Y46.4 E69.40734
G1 X49.583 Y45.365 E69.52428
G1 X49.44 Y44.264 E69.64418
G0 F4500 X49.448 Y44.064
G10
G0 X48.945 Y44.043
G0 X49.612 Y46.263
G0 X50.592 Y48.637
G0 X52.823 Y60.633
G0 X52.653 Y62.457
G11
G1 F1800 X52.788 Y61.923 E69.70367
G1 X53.007 Y61.419 E69.76302
G1 X53.32 Y60.936 E69.82518
G1 X53.701 Y60.524 E69.88578
G1 X54.157 Y60.17 E69.94813
G1 X54.654 Y59.905 E70.00896
G1 X55.168 Y59.729 E70.06764
G1 X55.712 Y59.637 E70.12722
G1 X56.3 Y59.639 E70.19073
G1 X56.828 Y59.729 E70.24857
G1 X57.369 Y59.917 E70.31043
G1 X57.839 Y60.171 E70.36813
G1 X58.288 Y60.516 E70.42928
G1 X58.677 Y60.938 E70.49127
G1 X58.98 Y61.401 E70.55103
G1 X59.204 Y61.91 E70.61109
G1 X59.343 Y62.457 E70.67204
G1 X59.388 Y62.997 E70.73056
G1 X59.388 Y78.917 E72.44992
G1 X59.343 Y79.449 E72.50758
G1 X59.207 Y79.989 E72.56772
G1 X58.989 Y80.489 E72.62663
G1 X58.683 Y80.961 E72.68738
G1 X58.294 Y81.385 E72.74953
G1 X57.854 Y81.729 E72.80985
G1 X57.355 Y81.998 E72.87107
G1 X56.845 Y82.174 E72.92934
G1 X56.281 Y82.271 E72.99115
G1 X55.696 Y82.269 E73.05433
G1 X55.183 Y82.182 E73.11052
G1 X54.627 Y81.991 E73.17401
G1 X54.155 Y81.738 E73.23185
G1 X53.703 Y81.387 E73.29366
G1 X53.327 Y80.98 E73.3535
G1 X53.015 Y80.504 E73.41497
G1 X52.789 Y79.989 E73.47571
G1 X52.653 Y79.449 E73.53585
G1 X52.608 Y78.912 E73.59405
G1 X52.608 Y63 E75.31254
G1 X52.653 Y62.457 E75.37139
G0 F4500 X52.702 Y62.263
G10
G0 X52.216 Y62.139
G0 X40.922 Y60.275
G0 X40.179 Y60.307
G11
G1 F1800 X36.909 Y60.311 E75.72455
G1 X36.91 Y170.497 E87.62464
G1 X188.879 Y170.498 E104.03729
G1 X188.879 Y63.54 E115.58875
G1 X188.879 Y60.311 E115.93749
G1 X185.591 Y60.311 E116.29259
G1 X185.45 Y60.191 E116.31259
G1 X185.45 Y28.307 E119.75606
G1 X40.338 Y28.307 E135.42815
G1 X40.337 Y60.136 E138.86569
G1 X40.179 Y60.307 E138.89083
G0 F4500 X39.979 Y60.307
G10
G0 X40.607 Y60.63
G0 X48.903 Y97.224
G0 X49.44 Y98.366
G11
G1 F1800 X49.488 Y97.214 E139.01535
G1 X49.716 Y96.16 E139.13182
G1 X50.135 Y95.113 E139.25361
G1 X50.718 Y94.166 E139.37372
G1 X51.442 Y93.341 E139.49226
G1 X52.312 Y92.635 E139.61327
G1 X53.292 Y92.086 E139.73458
G1 X54.346 Y91.714 E139.8553
G1 X55.513 Y91.512 E139.98321
G1 X56.577 Y91.528 E140.09813
G1 X57.63 Y91.709 E140.21352
G1 X58.704 Y92.086 E140.33645
G1 X59.684 Y92.635 E140.45777
G1 X60.538 Y93.325 E140.57635
G1 X61.277 Y94.165 E140.69718
G1 X61.861 Y95.112 E140.81734
G1 X62.275 Y96.138 E140.93683
G1 X62.511 Y97.232 E141.05769
G1 X62.556 Y98.363 E141.17994
G1 X62.416 Y99.451 E141.29841
G1 X62.089 Y100.519 E141.41904
G1 X61.589 Y101.51 E141.53892
G1 X60.933 Y102.402 E141.6585
G1 X60.136 Y103.166 E141.77774
G1 X59.2 Y103.801 E141.8999
G1 X58.184 Y104.26 E142.0203
G1 X57.11 Y104.539 E142.14014
G1 X55.98 Y104.634 E142.26261
G1 X54.886 Y104.539 E142.38121
G1 X53.811 Y104.26 E142.50116
G1 X52.796 Y103.801 E142.62146
G1 X51.867 Y103.172 E142.74263
G1 X51.06 Y102.394 E142.86369
G1 X50.406 Y101.509 E142.98254
G1 X49.901 Y100.502 E143.10421
G1 X49.583 Y99.467 E143.22114
G1 X49.44 Y98.366 E143.34105
G0 F4500 X49.448 Y98.166
G10
G0 X48.945 Y98.145
G0 X49.612 Y100.365
G0 X50.592 Y102.739
G0 X52.823 Y114.735
G0 X52.654 Y116.557
G11
G1 F1800 X52.79 Y116.017 E143.40119
G1 X53.007 Y115.521 E143.45966
G1 X53.32 Y115.038 E143.52182
G1 X53.701 Y114.626 E143.58243
G1 X54.157 Y114.272 E143.64477
G1 X54.654 Y114.007 E143.7056
G1 X55.168 Y113.831 E143.76428
G1 X55.712 Y113.739 E143.82386
G1 X56.3 Y113.741 E143.88737
G1 X56.828 Y113.831 E143.94521
G1 X57.369 Y114.019 E144.00707
G1 X57.839 Y114.273 E144.06477
G1 X58.288 Y114.618 E144.12592
G1 X58.677 Y115.04 E144.18791
G1 X58.98 Y115.503 E144.24767
G1 X59.21 Y116.033 E144.31007
G1 X59.343 Y116.559 E144.36866
G1 X59.388 Y117.099 E144.42718
G1 X59.388 Y133.019 E146.14654
G1 X59.343 Y133.551 E146.2042
G1 X59.207 Y134.091 E146.26435
G1 X58.989 Y134.591 E146.32325
G1 X58.683 Y135.063 E146.38401
G1 X58.294 Y135.487 E146.44615
G1 X57.854 Y135.831 E146.50647
G1 X57.355 Y136.1 E146.56769
G1 X56.845 Y136.276 E146.62596
G1 X56.281 Y136.373 E146.68777
G1 X55.696 Y136.371 E146.75095
G1 X55.183 Y136.284 E146.80714
G1 X54.627 Y136.093 E146.87064
G1 X54.155 Y135.84 E146.92847
G1 X53.703 Y135.489 E146.99028
G1 X53.327 Y135.082 E147.05012
G1 X53.015 Y134.606 E147.11159
G1 X52.789 Y134.091 E147.17233
G1 X52.653 Y133.551 E147.23247
G1 X52.608 Y133.014 E147.29067
G1 X52.608 Y117.102 E149.00917
G1 X52.654 Y116.557 E149.06823
G0 F4500 X52.702 Y116.363
G10
G0 X52.216 Y116.239
G0 X53.158 Y114.859
G0 X54.057 Y114.055
G0 X55.111 Y113.599
G0 X56.298 Y113.5
G0 X57.483 Y113.808
G0 X58.476 Y114.469
G0 X59.052 Y115.183
G0 X59.967 Y117.05
G0 X83.779 Y117.044
G0 X84.403 Y116.558
G11
G1 F1800 X84.542 Y116.012 E149.12908
G1 X84.766 Y115.503 E149.18914
G1 X85.068 Y115.041 E149.24875
G1 X85.451 Y114.626 E149.30974
G1 X85.907 Y114.272 E149.37209
G1 X86.404 Y114.007 E149.43292
G1 X86.918 Y113.831 E149.4916
G1 X87.462 Y113.739 E149.55118
G1 X88.05 Y113.741 E149.61469
G1 X88.578 Y113.831 E149.67253
G1 X89.119 Y114.019 E149.73439
G1 X89.589 Y114.273 E149.79209
G1 X90.038 Y114.618 E149.85324
G1 X90.427 Y115.04 E149.91523
G1 X90.73 Y115.503 E149.97499
G1 X90.954 Y116.012 E150.03505
G1 X91.087 Y116.535 E150.09333
G1 X91.138 Y117.099 E150.15449
G1 X91.138 Y133.019 E151.87385
G1 X91.093 Y133.551 E151.93151
G1 X90.957 Y134.091 E151.99165
G1 X90.739 Y134.591 E152.05056
G1 X90.433 Y135.063 E152.11131
G1 X90.044 Y135.487 E152.17345
G1 X89.604 Y135.831 E152.23377
G1 X89.105 Y136.1 E152.295
G1 X88.595 Y136.276 E152.35327
G1 X88.031 Y136.373 E152.41507
G1 X87.446 Y136.371 E152.47825
G1 X86.933 Y136.284 E152.53445
G1 X86.377 Y136.093 E152.59794
G1 X85.905 Y135.84 E152.65578
G1 X85.453 Y135.489 E152.71758
G1 X85.077 Y135.082 E152.77743
G1 X84.767 Y134.611 E152.83832
G1 X84.539 Y134.091 E152.89964
G1 X84.401 Y133.536 E152.96141
G1 X84.358 Y133.014 E153.01798
G1 X84.358 Y117.093 E154.73744
G1 X84.403 Y116.558 E154.79543
G0 F4500 X84.452 Y116.365
G10
G0 X83.967 Y116.241
G0 X84.226 Y115.288
G0 X82.388 Y102.794
G0 X81.189 Y98.358
G11
G1 F1800 X81.235 Y97.231 E154.91725
G1 X81.47 Y96.143 E155.03746
G1 X81.889 Y95.105 E155.15835
G1 X82.466 Y94.168 E155.2772
G1 X83.192 Y93.341 E155.39605
G1 X84.062 Y92.635 E155.51705
G1 X85.042 Y92.086 E155.63837
G1 X86.096 Y91.714 E155.75908
G1 X87.263 Y91.512 E155.88699
G1 X88.327 Y91.528 E156.00192
G1 X89.38 Y91.709 E156.11731
G1 X90.454 Y92.086 E156.24024
G1 X91.434 Y92.635 E156.36155
G1 X92.288 Y93.325 E156.48013
G1 X93.027 Y94.165 E156.60096
G1 X93.611 Y95.112 E156.72112
G1 X94.025 Y96.138 E156.84061
G1 X94.261 Y97.232 E156.96148
G1 X94.306 Y98.363 E157.08372
G1 X94.166 Y99.451 E157.2022
G1 X93.839 Y100.519 E157.32283
G1 X93.339 Y101.51 E157.44271
G1 X92.683 Y102.402 E157.56229
G1 X91.886 Y103.166 E157.68152
G1 X90.95 Y103.801 E157.80368
G1 X89.934 Y104.26 E157.92409
G1 X88.845 Y104.541 E158.04555
G1 X87.73 Y104.634 E158.16639
G1 X86.636 Y104.539 E158.28499
G1 X85.561 Y104.26 E158.40493
G1 X84.546 Y103.801 E158.52524
G1 X83.624 Y103.177 E158.64548
G1 X82.81 Y102.394 E158.76746
G1 X82.152 Y101.503 E158.88708
G1 X81.657 Y100.519 E159.00604
G1 X81.329 Y99.451 E159.1267
G1 X81.189 Y98.358 E159.24571
G0 F4500 X81.197 Y98.158
G10
G0 X80.696 Y98.137
G0 X81.437 Y100.612
G0 X81.954 Y101.638
G0 X82.664 Y102.589
G0 X83.533 Y103.403
G0 X84.392 Y103.992
G0 X85.473 Y104.485
G0 X86.651 Y104.781
G0 X87.767 Y104.873
G0 X88.881 Y104.781
G0 X90.065 Y104.464
G0 X91.134 Y103.963
G0 X92.002 Y103.383
G0 X92.861 Y102.561
G0 X93.56 Y101.602
G0 X93.974 Y100.77
G0 X94.885 Y98.406
G0 X112.358 Y98.375
G0 X112.939 Y98.358
G11
G1 F1800 X112.985 Y97.231 E159.36753
G1 X113.22 Y96.143 E159.48774
G1 X113.639 Y95.105 E159.60864
G1 X114.216 Y94.168 E159.72748
G1 X114.942 Y93.341 E159.84633
G1 X115.812 Y92.635 E159.96734
G1 X116.792 Y92.086 E160.08865
G1 X117.846 Y91.714 E160.20937
G1 X119.013 Y91.512 E160.33728
G1 X120.077 Y91.528 E160.4522
G1 X121.13 Y91.709 E160.56759
G1 X122.204 Y92.086 E160.69052
G1 X123.184 Y92.635 E160.81184
G1 X124.038 Y93.325 E160.93041
G1 X124.778 Y94.167 E161.05148
G1 X125.356 Y95.102 E161.1702
G1 X125.779 Y96.155 E161.29275
G1 X126.011 Y97.23 E161.41153
G1 X126.056 Y98.358 E161.53345
G1 X125.917 Y99.448 E161.65212
G1 X125.582 Y100.534 E161.77486
G1 X125.08 Y101.523 E161.89464
G1 X124.433 Y102.402 E162.01252
G1 X123.636 Y103.166 E162.13176
G1 X122.7 Y103.801 E162.25391
G1 X121.684 Y104.26 E162.37432
G1 X120.61 Y104.539 E162.49416
G1 X119.48 Y104.634 E162.61663
G1 X118.386 Y104.539 E162.73523
G1 X117.312 Y104.26 E162.85507
G1 X116.296 Y103.801 E162.97548
G1 X115.374 Y103.177 E163.09571
G1 X114.56 Y102.394 E163.2177
G1 X113.902 Y101.503 E163.33732
G1 X113.407 Y100.519 E163.45628
G1 X113.079 Y99.451 E163.57694
G1 X112.939 Y98.358 E163.69595
G0 F4500 X112.947 Y98.158
G10
G0 X112.446 Y98.137
G0 X113.112 Y100.364
G0 X114.061 Y102.696
G0 X116.036 Y115.174
G0 X116.151 Y116.575
G11
G1 F1800 X116.292 Y116.012 E163.75863
G1 X116.516 Y115.503 E163.81869
G1 X116.818 Y115.041 E163.8783
G1 X117.201 Y114.626 E163.93929
G1 X117.657 Y114.272 E164.00164
G1 X118.154 Y114.007 E164.06247
G1 X118.668 Y113.831 E164.12114
G1 X119.212 Y113.739 E164.18073
G1 X119.8 Y113.741 E164.24423
G1 X120.328 Y113.831 E164.30208
G1 X120.869 Y114.019 E164.36394
G1 X121.339 Y114.273 E164.42163
G1 X121.788 Y114.618 E164.48279
G1 X122.177 Y115.04 E164.54477
G1 X122.48 Y115.503 E164.60453
G1 X122.702 Y116.008 E164.66411
G1 X122.844 Y116.567 E164.7264
G1 X122.889 Y117.116 E164.78589
G1 X122.888 Y133.011 E166.50255
G1 X122.839 Y133.567 E166.56283
G1 X122.707 Y134.091 E166.62119
G1 X122.489 Y134.591 E166.6801
G1 X122.183 Y135.063 E166.74085
G1 X121.794 Y135.487 E166.803
G1 X121.354 Y135.831 E166.86332
G1 X120.855 Y136.1 E166.92454
G1 X120.345 Y136.276 E166.98281
G1 X119.781 Y136.373 E167.04461
G1 X119.196 Y136.371 E167.10779
G1 X118.683 Y136.284 E167.16399
G1 X118.127 Y136.093 E167.22748
G1 X117.655 Y135.84 E167.28532
G1 X117.203 Y135.489 E167.34713
G1 X116.827 Y135.082 E167.40697
G1 X116.517 Y134.611 E167.46787
G1 X116.289 Y134.091 E167.52919
G1 X116.151 Y133.536 E167.59095
G1 X116.108 Y133.014 E167.64752
G1 X116.108 Y117.093 E169.36699
G1 X116.151 Y116.575 E169.42312
G0 F4500 X116.199 Y116.381
G10
G0 X115.713 Y116.257
G0 X115.527 Y133.03
G0 X113.712 Y147.98
G0 X112.939 Y152.46
G11
G1 F1800 X112.985 Y151.333 E169.54494
G1 X113.22 Y150.245 E169.66515
G1 X113.639 Y149.207 E169.78605
G1 X114.216 Y148.27 E169.90489
G1 X114.942 Y147.443 E170.02374
G1 X115.812 Y146.737 E170.14475
G1 X116.792 Y146.188 E170.26606
G1 X117.846 Y145.816 E170.38678
G1 X119.013 Y145.614 E170.51469
G1 X120.077 Y145.63 E170.62961
G1 X121.13 Y145.811 E170.745
G1 X122.204 Y146.188 E170.86793
G1 X123.184 Y146.737 E170.98925
G1 X124.038 Y147.427 E171.10782
G1 X124.778 Y148.269 E171.22889
G1 X125.356 Y149.204 E171.34761
G1 X125.778 Y150.251 E171.46952
G1 X126.009 Y151.323 E171.58795
G1 X126.057 Y152.456 E171.71043
G1 X125.912 Y153.569 E171.83165
G1 X125.587 Y154.625 E171.95098
G1 X125.089 Y155.611 E172.07027
G1 X124.445 Y156.489 E172.18787
G1 X123.612 Y157.287 E172.31246
G1 X122.688 Y157.909 E172.43275
G1 X121.702 Y158.355 E172.54963
G1 X120.608 Y158.642 E172.67178
G1 X119.48 Y158.736 E172.79402
G1 X118.405 Y158.644 E172.91055
G1 X117.294 Y158.355 E173.03453
G1 X116.308 Y157.909 E173.1514
G1 X115.374 Y157.279 E173.27308
G1 X114.56 Y156.496 E173.39506
G1 X113.906 Y155.611 E173.51391
G1 X113.407 Y154.62 E173.63374
G1 X113.079 Y153.553 E173.75429
G1 X112.939 Y152.46 E173.8733
G0 F4500 X112.947 Y152.26
G10
G0 X112.446 Y152.239
G0 X94.885 Y152.508
G0 X80.705 Y152.617
G11
G0 X81.189 Y152.451
G1 F1800 X81.235 Y151.333 E173.99415
G1 X81.47 Y150.245 E174.11436
G1 X81.889 Y149.207 E174.23526
G1 X82.466 Y148.27 E174.3541
G1 X83.192 Y147.443 E174.47295
G1 X84.062 Y146.737 E174.59395
G1 X85.042 Y146.188 E174.71527
G1 X86.096 Y145.816 E174.83598
G1 X87.263 Y145.614 E174.96389
G1 X88.327 Y145.63 E175.07882
G1 X89.38 Y145.811 E175.19421
G1 X90.454 Y146.188 E175.31714
G1 X91.434 Y146.737 E175.43846
G1 X92.288 Y147.427 E175.55703
G1 X93.027 Y148.267 E175.67786
G1 X93.611 Y149.214 E175.79802
G1 X94.025 Y150.24 E175.91751
G1 X94.261 Y151.334 E176.03838
G1 X94.306 Y152.465 E176.16063
G1 X94.166 Y153.553 E176.2791
G1 X93.845 Y154.604 E176.39778
G1 X93.339 Y155.611 E176.5195
G1 X92.695 Y156.489 E176.6371
G1 X91.862 Y157.287 E176.76168
G1 X90.938 Y157.909 E176.88198
G1 X89.952 Y158.355 E176.99885
G1 X88.858 Y158.642 E177.121
