;FLAVOR:UltiGCode
;TIME:24658
;MATERIAL:48616
;MATERIAL2:0
;NOZZLE_DIAMETER:0.4
;MINX:32.354
;MINY:31.505
;MINZ:0.27
;MAXX:200.324
;MAXY:189.696
;MAXZ:61.02
;Generated with Cura_SteamEngine main
M82 ;absolute extrusion mode
G0 F3000 Y50 ;avoid prime blob
G92 E0
G92 E0
G10
;LAYER_COUNT:406
;LAYER:0
M107
G0 F4500 X37.663 Y34.227 Z0.27
G0 X35.783 Y39.305
;TYPE:SKIRT
G11
G1 F1800 X35.823 Y38.516 E0.08532
G1 X35.942 Y37.736 E0.17054
G1 X36.14 Y36.971 E0.25588
G1 X36.414 Y36.231 E0.3411
G1 X36.762 Y35.522 E0.4264
G1 X37.18 Y34.851 E0.51178
G1 X37.663 Y34.227 E0.597
G1 X38.206 Y33.654 E0.68226
G1 X38.805 Y33.139 E0.76757
G1 X39.453 Y32.688 E0.85284
G1 X40.144 Y32.304 E0.93822
G1 X40.869 Y31.992 E1.02346
G1 X41.622 Y31.755 E1.10872
G1 X42.396 Y31.596 E1.19405
G1 X43.278 Y31.505 E1.28981
G1 X189.095 Y31.505 E17.03805
G1 X189.884 Y31.545 E17.12337
G1 X190.664 Y31.664 E17.20859
G1 X191.429 Y31.862 E17.29393
G1 X192.169 Y32.136 E17.37915
G1 X192.878 Y32.484 E17.46445
G1 X193.549 Y32.902 E17.54983
G1 X194.173 Y33.385 E17.63505
G1 X194.746 Y33.928 E17.72031
G1 X195.261 Y34.527 E17.80562
G1 X195.712 Y35.175 E17.89089
G1 X196.096 Y35.866 E17.97627
G1 X196.408 Y36.591 E18.06151
G1 X196.645 Y37.344 E18.14677
G1 X196.804 Y38.118 E18.2321
G1 X196.895 Y39 E18.32786
G1 X196.895 Y64.842 E21.1188
G1 X197.602 Y65.389 E21.21534
G1 X198.175 Y65.932 E21.3006
G1 X198.69 Y66.531 E21.38591
G1 X199.141 Y67.179 E21.47118
G1 X199.525 Y67.87 E21.55656
G1 X199.837 Y68.595 E21.6418
G1 X200.074 Y69.348 E21.72706
G1 X200.233 Y70.122 E21.81239
G1 X200.324 Y71.004 E21.90816
G1 X200.324 Y181.896 E33.88449
G1 X200.284 Y182.685 E33.96981
G1 X200.165 Y183.465 E34.05503
G1 X199.967 Y184.23 E34.14037
G1 X199.693 Y184.97 E34.22559
G1 X199.345 Y185.679 E34.31089
G1 X198.927 Y186.35 E34.39627
G1 X198.444 Y186.974 E34.48149
G1 X197.901 Y187.547 E34.56675
G1 X197.302 Y188.062 E34.65206
G1 X196.654 Y188.513 E34.73733
G1 X195.963 Y188.897 E34.82271
G1 X195.238 Y189.209 E34.90795
G1 X194.485 Y189.446 E34.99321
G1 X193.711 Y189.605 E35.07854
G1 X192.829 Y189.696 E35.17431
G1 X40.154 Y189.696 E51.66321
G1 X39.365 Y189.656 E51.74853
G1 X38.585 Y189.537 E51.83374
G1 X37.82 Y189.339 E51.91908
G1 X37.08 Y189.065 E52.00431
G1 X36.371 Y188.717 E52.08961
G1 X35.7 Y188.299 E52.17498
G1 X35.076 Y187.816 E52.26021
G1 X34.503 Y187.273 E52.34546
G1 X33.988 Y186.674 E52.43078
G1 X33.537 Y186.026 E52.51604
G1 X33.153 Y185.335 E52.60142
G1 X32.841 Y184.61 E52.68666
G1 X32.604 Y183.857 E52.77192
G1 X32.445 Y183.083 E52.85726
G1 X32.354 Y182.201 E52.95302
G1 X32.354 Y71.309 E64.92936
G1 X32.394 Y70.52 E65.01468
G1 X32.513 Y69.74 E65.09989
G1 X32.711 Y68.975 E65.18523
G1 X32.985 Y68.235 E65.27046
G1 X33.333 Y67.526 E65.35576
G1 X33.751 Y66.855 E65.44113
G1 X34.234 Y66.231 E65.52636
G1 X34.777 Y65.658 E65.61161
G1 X35.376 Y65.143 E65.69693
G1 X35.783 Y64.86 E65.75047
G1 X35.783 Y39.305 E68.51041
G0 F4500 X36.183 Y39.305
G1 F1800 X36.223 Y38.537 E68.59346
G1 X36.342 Y37.777 E68.67654
G1 X36.54 Y37.034 E68.75959
G1 X36.814 Y36.315 E68.84269
G1 X37.161 Y35.629 E68.92571
G1 X37.577 Y34.982 E69.00879
G1 X38.058 Y34.382 E69.09184
G1 X38.599 Y33.835 E69.17493
G1 X39.194 Y33.347 E69.25804
G1 X39.836 Y32.924 E69.34107
G1 X40.519 Y32.569 E69.4242
G1 X41.234 Y32.288 E69.50717
G1 X41.976 Y32.082 E69.59034
G1 X42.734 Y31.954 E69.67336
G1 X43.583 Y31.905 E69.76521
G1 X189.095 Y31.905 E85.4805
G1 X189.863 Y31.945 E85.56356
G1 X190.623 Y32.064 E85.64664
G1 X191.366 Y32.262 E85.72968
G1 X192.085 Y32.536 E85.81278
G1 X192.771 Y32.883 E85.89581
G1 X193.418 Y33.299 E85.97888
G1 X194.018 Y33.78 E86.06194
G1 X194.565 Y34.321 E86.14502
G1 X195.053 Y34.916 E86.22813
G1 X195.476 Y35.558 E86.31117
G1 X195.831 Y36.241 E86.3943
G1 X196.112 Y36.956 E86.47727
G1 X196.318 Y37.698 E86.56044
G1 X196.446 Y38.456 E86.64346
G1 X196.495 Y39.305 E86.7353
G1 X196.495 Y65.077 E89.51868
G1 X196.847 Y65.303 E89.56386
G1 X197.447 Y65.784 E89.64691
G1 X197.994 Y66.325 E89.73
G1 X198.482 Y66.92 E89.81311
G1 X198.905 Y67.562 E89.89614
G1 X199.26 Y68.245 E89.97927
G1 X199.541 Y68.96 E90.06224
G1 X199.747 Y69.702 E90.14541
G1 X199.875 Y70.46 E90.22843
G1 X199.924 Y71.309 E90.32028
G1 X199.924 Y181.896 E102.26367
G1 X199.884 Y182.664 E102.34673
G1 X199.765 Y183.424 E102.42981
G1 X199.567 Y184.167 E102.51285
G1 X199.293 Y184.886 E102.59595
G1 X198.946 Y185.572 E102.67898
G1 X198.53 Y186.219 E102.76205
G1 X198.049 Y186.819 E102.84511
G1 X197.508 Y187.366 E102.92819
G1 X196.913 Y187.854 E103.0113
G1 X196.271 Y188.277 E103.09434
G1 X195.588 Y188.632 E103.17747
G1 X194.873 Y188.913 E103.26044
G1 X194.131 Y189.119 E103.34361
G1 X193.373 Y189.247 E103.42663
G1 X192.524 Y189.296 E103.51847
G1 X40.154 Y189.296 E119.97443
G1 X39.386 Y189.256 E120.05749
G1 X38.626 Y189.137 E120.14057
G1 X37.883 Y188.939 E120.22361
G1 X37.164 Y188.665 E120.30671
G1 X36.478 Y188.318 E120.38974
G1 X35.831 Y187.902 E120.47281
G1 X35.231 Y187.421 E120.55587
G1 X34.684 Y186.88 E120.63896
G1 X34.196 Y186.285 E120.72206
G1 X33.773 Y185.643 E120.8051
G1 X33.418 Y184.96 E120.88823
G1 X33.137 Y184.245 E120.9712
G1 X32.931 Y183.503 E121.05437
G1 X32.803 Y182.745 E121.13739
G1 X32.754 Y181.896 E121.22923
G1 X32.754 Y71.309 E133.17263
G1 X32.794 Y70.541 E133.25569
G1 X32.913 Y69.781 E133.33877
G1 X33.111 Y69.038 E133.42181
G1 X33.385 Y68.319 E133.50491
G1 X33.732 Y67.633 E133.58794
G1 X34.148 Y66.986 E133.67101
G1 X34.629 Y66.386 E133.75406
G1 X35.17 Y65.839 E133.83715
G1 X35.765 Y65.351 E133.92026
G1 X36.183 Y65.076 E133.9743
G1 X36.183 Y39.305 E136.75757
G0 F4500 X36.583 Y39.305
G1 F1800 X36.623 Y38.558 E136.83836
G1 X36.742 Y37.82 E136.91909
G1 X36.94 Y37.098 E136.99995
G1 X37.213 Y36.402 E137.08069
G1 X37.56 Y35.739 E137.16151
G1 X37.975 Y35.116 E137.24235
G1 X38.454 Y34.542 E137.3231
G1 X38.991 Y34.021 E137.4039
G1 X39.581 Y33.562 E137.48463
G1 X40.217 Y33.167 E137.56549
G1 X40.891 Y32.843 E137.64626
G1 X41.596 Y32.593 E137.72704
G1 X42.324 Y32.419 E137.80788
G1 X43.214 Y32.305 E137.90479
G1 X189.095 Y32.305 E153.65993
G1 X189.842 Y32.345 E153.74073
G1 X190.58 Y32.464 E153.82146
G1 X191.302 Y32.662 E153.90231
G1 X191.998 Y32.935 E153.98306
G1 X192.661 Y33.282 E154.06388
G1 X193.284 Y33.697 E154.14472
G1 X193.858 Y34.176 E154.22546
G1 X194.379 Y34.713 E154.30627
G1 X194.838 Y35.303 E154.387
G1 X195.233 Y35.939 E154.46786
G1 X195.557 Y36.613 E154.54862
G1 X195.807 Y37.318 E154.62941
G1 X195.981 Y38.046 E154.71025
G1 X196.095 Y38.936 E154.80715
G1 X196.095 Y65.289 E157.65328
G1 X196.713 Y65.701 E157.73349
G1 X197.287 Y66.18 E157.81424
G1 X197.808 Y66.717 E157.89504
G1 X198.267 Y67.307 E157.97577
G1 X198.662 Y67.943 E158.05663
G1 X198.986 Y68.617 E158.1374
G1 X199.236 Y69.322 E158.21818
G1 X199.41 Y70.05 E158.29902
G1 X199.524 Y70.94 E158.39593
G1 X199.524 Y181.896 E170.37917
G1 X199.484 Y182.643 E170.45997
G1 X199.365 Y183.381 E170.5407
G1 X199.167 Y184.103 E170.62155
G1 X198.894 Y184.799 E170.7023
G1 X198.547 Y185.462 E170.78312
G1 X198.132 Y186.085 E170.86396
G1 X197.653 Y186.659 E170.9447
G1 X197.116 Y187.18 E171.02551
G1 X196.526 Y187.639 E171.10624
G1 X195.89 Y188.034 E171.1871
G1 X195.216 Y188.358 E171.26786
G1 X194.511 Y188.608 E171.34865
G1 X193.783 Y188.782 E171.42949
G1 X192.893 Y188.896 E171.52639
G1 X40.154 Y188.896 E188.0222
G1 X39.407 Y188.856 E188.103
G1 X38.669 Y188.737 E188.18373
G1 X37.947 Y188.539 E188.26458
G1 X37.251 Y188.266 E188.34533
G1 X36.588 Y187.919 E188.42615
G1 X35.965 Y187.504 E188.50699
G1 X35.391 Y187.025 E188.58773
G1 X34.87 Y186.488 E188.66854
G1 X34.411 Y185.898 E188.74927
G1 X34.016 Y185.262 E188.83013
G1 X33.692 Y184.588 E188.91089
G1 X33.442 Y183.883 E188.99168
G1 X33.268 Y183.155 E189.07252
G1 X33.154 Y182.265 E189.16942
G1 X33.154 Y71.309 E201.15267
G1 X33.194 Y70.562 E201.23346
G1 X33.313 Y69.824 E201.3142
G1 X33.511 Y69.102 E201.39505
G1 X33.784 Y68.406 E201.4758
G1 X34.131 Y67.743 E201.55661
G1 X34.546 Y67.12 E201.63746
G1 X35.025 Y66.546 E201.7182
G1 X35.562 Y66.025 E201.79901
G1 X36.152 Y65.566 E201.87974
G1 X36.583 Y65.298 E201.93455
G1 X36.583 Y39.305 E204.7418
G0 F4500 X36.983 Y39.305
G1 F1800 X37.023 Y38.58 E204.82022
G1 X37.142 Y37.863 E204.89871
G1 X37.34 Y37.164 E204.97717
G1 X37.613 Y36.491 E205.05561
G1 X37.958 Y35.852 E205.13404
G1 X38.372 Y35.255 E205.2125
G1 X38.848 Y34.707 E205.29089
G1 X39.382 Y34.214 E205.36938
G1 X39.967 Y33.784 E205.4478
G1 X40.596 Y33.42 E205.52628
G1 X41.261 Y33.127 E205.60477
G1 X41.954 Y32.909 E205.68323
G1 X42.666 Y32.769 E205.76159
G1 X43.583 Y32.705 E205.86087
G1 X189.095 Y32.705 E221.57617
G1 X189.82 Y32.745 E221.65459
G1 X190.537 Y32.864 E221.73308
G1 X191.236 Y33.062 E221.81154
G1 X191.909 Y33.335 E221.88998
G1 X192.548 Y33.68 E221.96841
G1 X193.145 Y34.094 E222.04687
G1 X193.693 Y34.57 E222.12526
G1 X194.186 Y35.104 E222.20376
G1 X194.616 Y35.689 E222.28217
G1 X194.98 Y36.318 E222.36065
G1 X195.273 Y36.983 E222.43914
G1 X195.491 Y37.676 E222.5176
G1 X195.631 Y38.388 E222.59596
G1 X195.695 Y39.305 E222.69524
G1 X195.695 Y65.532 E225.52776
G1 X195.977 Y65.684 E225.56236
G1 X196.574 Y66.098 E225.64082
G1 X197.122 Y66.574 E225.71921
G1 X197.615 Y67.108 E225.7977
G1 X198.045 Y67.693 E225.87611
G1 X198.409 Y68.322 E225.9546
G1 X198.702 Y68.987 E226.03308
G1 X198.92 Y69.68 E226.11154
G1 X199.06 Y70.392 E226.18991
G1 X199.124 Y71.309 E226.28919
G1 X199.124 Y181.896 E238.23258
G1 X199.084 Y182.621 E238.311
G1 X198.965 Y183.338 E238.3895
G1 X198.767 Y184.037 E238.46796
G1 X198.494 Y184.71 E238.5464
G1 X198.149 Y185.349 E238.62483
G1 X197.735 Y185.946 E238.70329
G1 X197.259 Y186.494 E238.78168
G1 X196.725 Y186.987 E238.86017
G1 X196.14 Y187.417 E238.93859
G1 X195.511 Y187.781 E239.01707
G1 X194.846 Y188.074 E239.09555
G1 X194.153 Y188.292 E239.17401
G1 X193.441 Y188.432 E239.25238
G1 X192.524 Y188.496 E239.35166
G1 X40.154 Y188.496 E255.80762
G1 X39.429 Y188.456 E255.88604
G1 X38.712 Y188.337 E255.96453
G1 X38.013 Y188.139 E256.043
G1 X37.34 Y187.866 E256.12143
G1 X36.701 Y187.521 E256.19986
G1 X36.104 Y187.107 E256.27832
G1 X35.556 Y186.631 E256.35672
G1 X35.063 Y186.097 E256.43521
G1 X34.633 Y185.512 E256.51362
G1 X34.269 Y184.883 E256.59211
G1 X33.976 Y184.218 E256.67059
G1 X33.758 Y183.525 E256.74905
G1 X33.618 Y182.813 E256.82742
G1 X33.554 Y181.896 E256.92669
G1 X33.554 Y71.309 E268.87009
G1 X33.594 Y70.584 E268.94851
G1 X33.713 Y69.867 E269.027
G1 X33.911 Y69.168 E269.10547
G1 X34.184 Y68.495 E269.1839
G1 X34.529 Y67.856 E269.26233
G1 X34.943 Y67.259 E269.34079
G1 X35.419 Y66.711 E269.41919
G1 X35.953 Y66.218 E269.49768
G1 X36.538 Y65.788 E269.57609
G1 X36.983 Y65.53 E269.63164
G1 X36.983 Y39.305 E272.46394
G0 F4500 X37.383 Y39.305
G1 F1800 X37.423 Y38.602 E272.53999
G1 X37.542 Y37.908 E272.61604
G1 X37.74 Y37.233 E272.69201
G1 X38.012 Y36.584 E272.76801
G1 X38.357 Y35.97 E272.84407
G1 X38.768 Y35.399 E272.92005
G1 X39.242 Y34.878 E272.99612
G1 X39.772 Y34.414 E273.0722
G1 X40.351 Y34.014 E273.1482
G1 X40.972 Y33.682 E273.22425
G1 X41.626 Y33.422 E273.30026
G1 X42.306 Y33.238 E273.37634
G1 X43.002 Y33.132 E273.45238
G1 X43.583 Y33.105 E273.51519
G1 X189.095 Y33.105 E289.23049
G1 X189.798 Y33.145 E289.30654
G1 X190.492 Y33.264 E289.38258
G1 X191.167 Y33.462 E289.45855
G1 X191.816 Y33.734 E289.53455
G1 X192.43 Y34.079 E289.61062
G1 X193.001 Y34.49 E289.6866
G1 X193.522 Y34.964 E289.76267
G1 X193.986 Y35.494 E289.83874
G1 X194.386 Y36.073 E289.91475
G1 X194.718 Y36.694 E289.9908
G1 X194.978 Y37.348 E290.06681
G1 X195.162 Y38.028 E290.14289
G1 X195.268 Y38.724 E290.21892
G1 X195.295 Y39.305 E290.28174
G1 X195.295 Y65.766 E293.13953
G1 X195.859 Y66.083 E293.2094
G1 X196.43 Y66.494 E293.28538
G1 X196.951 Y66.968 E293.36145
G1 X197.415 Y67.498 E293.43753
G1 X197.815 Y68.077 E293.51353
G1 X198.147 Y68.698 E293.58958
G1 X198.407 Y69.352 E293.66559
G1 X198.591 Y70.032 E293.74167
G1 X198.697 Y70.728 E293.81771
G1 X198.724 Y71.309 E293.88052
G1 X198.724 Y181.896 E305.82392
G1 X198.684 Y182.599 E305.89997
G1 X198.565 Y183.293 E305.97601
G1 X198.367 Y183.968 E306.05198
G1 X198.095 Y184.617 E306.12798
G1 X197.75 Y185.231 E306.20405
G1 X197.339 Y185.802 E306.28003
G1 X196.865 Y186.323 E306.3561
G1 X196.335 Y186.787 E306.43218
G1 X195.756 Y187.187 E306.50818
G1 X195.135 Y187.519 E306.58423
G1 X194.481 Y187.779 E306.66024
G1 X193.801 Y187.963 E306.73632
G1 X193.105 Y188.069 E306.81235
G1 X192.524 Y188.096 E306.87517
G1 X40.154 Y188.096 E323.33113
G1 X39.451 Y188.056 E323.40718
G1 X38.757 Y187.937 E323.48322
G1 X38.082 Y187.739 E323.55919
G1 X37.433 Y187.467 E323.63519
G1 X36.819 Y187.122 E323.71126
G1 X36.248 Y186.711 E323.78724
G1 X35.727 Y186.237 E323.86331
G1 X35.263 Y185.707 E323.93939
G1 X34.863 Y185.128 E324.01539
G1 X34.531 Y184.507 E324.09144
G1 X34.271 Y183.853 E324.16745
G1 X34.087 Y183.173 E324.24353
G1 X33.981 Y182.477 E324.31956
G1 X33.954 Y181.896 E324.38238
G1 X33.954 Y71.309 E336.32578
G1 X33.994 Y70.606 E336.40182
G1 X34.113 Y69.912 E336.47787
G1 X34.311 Y69.237 E336.55384
G1 X34.583 Y68.588 E336.62984
G1 X34.928 Y67.974 E336.7059
G1 X35.339 Y67.403 E336.78188
G1 X35.813 Y66.882 E336.85795
G1 X36.343 Y66.418 E336.93403
G1 X36.922 Y66.018 E337.01003
G1 X37.383 Y65.772 E337.06647
G1 X37.383 Y39.305 E339.9249
G0 F4500 X37.783 Y39.305
G1 F1800 X37.823 Y38.625 E339.99847
G1 X37.942 Y37.955 E340.07196
G1 X38.139 Y37.303 E340.14552
G1 X38.411 Y36.679 E340.21904
G1 X38.755 Y36.091 E340.29261
G1 X39.165 Y35.547 E340.36618
G1 X39.636 Y35.056 E340.43966
G1 X40.161 Y34.622 E340.51323
G1 X40.733 Y34.253 E340.58674
G1 X41.345 Y33.954 E340.66031
G1 X41.987 Y33.729 E340.73378
G1 X42.652 Y33.58 E340.80738
G1 X43.583 Y33.505 E340.90825
G1 X189.095 Y33.505 E356.62355
G1 X189.775 Y33.545 E356.69712
G1 X190.445 Y33.664 E356.77061
G1 X191.097 Y33.861 E356.84417
G1 X191.721 Y34.133 E356.91768
G1 X192.309 Y34.477 E356.99126
G1 X192.853 Y34.887 E357.06483
G1 X193.344 Y35.358 E357.13831
G1 X193.778 Y35.883 E357.21187
G1 X194.147 Y36.455 E357.28539
G1 X194.446 Y37.067 E357.35895
G1 X194.671 Y37.709 E357.43242
G1 X194.82 Y38.374 E357.50602
G1 X194.895 Y39.305 E357.6069
G1 X194.895 Y65.988 E360.48866
G1 X195.738 Y66.481 E360.59413
G1 X196.282 Y66.891 E360.6677
G1 X196.773 Y67.362 E360.74118
G1 X197.207 Y67.887 E360.81475
G1 X197.576 Y68.459 E360.88826
G1 X197.875 Y69.071 E360.96183
G1 X198.1 Y69.713 E361.0353
G1 X198.249 Y70.378 E361.1089
G1 X198.324 Y71.309 E361.20977
G1 X198.324 Y181.896 E373.15317
G1 X198.284 Y182.576 E373.22673
G1 X198.165 Y183.246 E373.30023
G1 X197.968 Y183.898 E373.37379
G1 X197.696 Y184.522 E373.4473
G1 X197.352 Y185.11 E373.52088
G1 X196.942 Y185.654 E373.59445
G1 X196.471 Y186.145 E373.66793
G1 X195.946 Y186.579 E373.74149
G1 X195.374 Y186.948 E373.81501
G1 X194.762 Y187.247 E373.88857
G1 X194.12 Y187.472 E373.96204
G1 X193.455 Y187.621 E374.03564
G1 X192.524 Y187.696 E374.13652
G1 X40.154 Y187.696 E390.59248
G1 X39.474 Y187.656 E390.66604
G1 X38.804 Y187.537 E390.73953
G1 X38.152 Y187.34 E390.81309
G1 X37.528 Y187.068 E390.88661
G1 X36.94 Y186.724 E390.96018
G1 X36.396 Y186.314 E391.03375
G1 X35.905 Y185.843 E391.10724
G1 X35.471 Y185.318 E391.1808
G1 X35.102 Y184.746 E391.25432
G1 X34.803 Y184.134 E391.32788
G1 X34.578 Y183.492 E391.40135
G1 X34.429 Y182.827 E391.47495
G1 X34.354 Y181.896 E391.57582
G1 X34.354 Y71.309 E403.51922
G1 X34.394 Y70.629 E403.59279
G1 X34.513 Y69.959 E403.66628
G1 X34.71 Y69.307 E403.73984
G1 X34.982 Y68.683 E403.81336
G1 X35.326 Y68.095 E403.88693
G1 X35.736 Y67.551 E403.9605
G1 X36.207 Y67.06 E404.03398
G1 X36.732 Y66.626 E404.10755
G1 X37.304 Y66.257 E404.18106
G1 X37.783 Y66.023 E404.23864
G1 X37.783 Y39.305 E407.12418
