;FLAVOR:UltiGCode
;TIME:7878
;MATERIAL:13965
;MATERIAL2:0
;NOZZLE_DIAMETER:0.4
;MINX:17.916
;MINY:85.316
;MINZ:0.27
;MAXX:176.686
;MAXY:155.186
;MAXZ:3.12
;Generated with Cura_SteamEngine main
M82 ;absolute extrusion mode
G0 F3000 Y50 ;avoid prime blob
G92 E0
G92 E0
G10
;LAYER_COUNT:20
;LAYER:0
M107
G0 F4500 X23.638 Y85.459 Z0.27
G0 X21.345 Y89.142
;TYPE:SKIRT
G11
G1 F1800 X21.36 Y88.141 E0.10812
G1 X21.529 Y87.484 E0.18139
G1 X22.003 Y86.594 E0.29029
G1 X22.73 Y85.896 E0.39913
G1 X23.638 Y85.459 E0.50796
G1 X24.133 Y85.353 E0.56264
G1 X24.785 Y85.317 E0.63316
G1 X169.396 Y85.316 E16.25115
G1 X170.433 Y85.331 E16.36316
G1 X171.087 Y85.499 E16.43608
G1 X171.551 Y85.701 E16.49074
G1 X172.355 Y86.308 E16.59954
G1 X172.93 Y87.136 E16.70841
G1 X173.22 Y88.101 E16.81723
G1 X173.256 Y88.756 E16.88808
G1 X173.257 Y102.924 E18.41822
G1 X173.297 Y105.721 E18.72033
G1 X173.412 Y108.438 E19.01403
G1 X173.607 Y111.184 E19.31134
G1 X173.875 Y113.89 E19.60502
G1 X174.223 Y116.613 E19.9015
G1 X174.648 Y119.314 E20.19679
G1 X175.151 Y122.022 E20.49426
G1 X175.714 Y124.64 E20.78347
G1 X176.415 Y127.492 E21.10065
G1 X176.572 Y128.096 E21.16805
G1 X176.685 Y128.875 E21.25306
G1 X176.686 Y142.795 E22.75642
G1 X176.671 Y143.859 E22.87135
G1 X176.486 Y144.577 E22.95142
G1 X175.979 Y145.744 E23.08884
G1 X175.621 Y146.538 E23.18291
G1 X174.579 Y149.035 E23.47512
G1 X173.577 Y151.643 E23.77686
G1 X172.938 Y153.397 E23.97847
G1 X172.558 Y153.963 E24.0521
G1 X171.816 Y154.645 E24.16094
G1 X170.898 Y155.062 E24.26983
G1 X170.069 Y155.186 E24.36036
G1 X25.206 Y155.186 E40.00557
G1 X24.168 Y155.171 E40.11768
G1 X23.514 Y155.003 E40.19061
G1 X23.05 Y154.801 E40.24526
G1 X22.246 Y154.194 E40.35406
G1 X21.926 Y153.803 E40.40863
G1 X21.628 Y153.292 E40.47252
G1 X20.488 Y150.203 E40.82812
G1 X19.449 Y147.621 E41.12871
G1 X18.049 Y144.422 E41.50584
G1 X17.917 Y143.497 E41.60675
G1 X17.916 Y129.559 E43.11205
G1 X17.927 Y128.852 E43.18842
G1 X18.019 Y128.142 E43.26574
G1 X18.188 Y127.451 E43.34257
G1 X18.564 Y126.006 E43.50382
G1 X19.183 Y123.313 E43.80225
G1 X19.723 Y120.611 E44.09984
G1 X20.181 Y117.937 E44.39284
G1 X20.563 Y115.247 E44.68627
G1 X20.873 Y112.512 E44.98354
G1 X21.105 Y109.769 E45.28084
G1 X21.258 Y107.048 E45.57518
G1 X21.345 Y102.971 E46.01559
G1 X21.345 Y89.142 E47.50912
G10
;MESH:02-front_face_bot.STL
G0 F4500 X31.776 Y92.578
G0 X32.525 Y105.54
;TYPE:WALL-OUTER
G11
G1 F1800 X32.359 Y105.377 E47.53425
G1 X32.362 Y92.543 E48.92032
G1 X32.522 Y92.393 E48.94401
G1 X45.367 Y92.391 E50.33127
G1 X45.48 Y92.488 E50.34735
G1 X45.495 Y92.663 E50.36632
G1 X45.45 Y92.733 E50.37531
G1 X32.686 Y105.496 E52.32474
G1 X32.525 Y105.54 E52.34277
G0 F4500 X32.382 Y105.4
G10
G0 X31.992 Y105.753
G0 X32.83 Y106.075
G0 X34.184 Y107.061
G0 X34.583 Y107.598
G11
G1 F1800 X34.627 Y107.437 E52.36079
G1 X47.432 Y94.631 E54.31664
G1 X47.641 Y94.646 E54.33927
G1 X47.733 Y94.76 E54.35509
G1 X47.73 Y107.598 E55.7416
G1 X47.564 Y107.764 E55.76695
G1 X34.725 Y107.766 E57.15356
G1 X34.583 Y107.598 E57.17732
G0 F4500 X34.627 Y107.437
G0 X34.651 Y107.413
G10
G0 X34.106 Y107.415
G0 X34.278 Y110.861
G0 X32.388 Y111.532
G11
G1 F1800 X32.525 Y111.443 E57.19496
G1 X45.364 Y111.441 E58.58158
G1 X45.477 Y111.532 E58.59725
G1 X45.493 Y111.74 E58.61978
G1 X32.686 Y124.546 E60.57578
G1 X32.525 Y124.59 E60.5938
G1 X32.359 Y124.427 E60.61893
G1 X32.357 Y111.641 E61.99982
G1 X32.388 Y111.532 E62.01206
G0 F4500 X32.525 Y111.443
G0 X32.562 Y111.443
G10
G0 X32.083 Y111.127
G0 X32.12 Y124.518
G0 X33.11 Y124.944
G0 X34.229 Y126.063
G0 X34.583 Y126.648
G11
G1 F1800 X34.627 Y126.487 E62.03008
G1 X47.433 Y113.68 E63.98608
G1 X47.641 Y113.696 E64.00861
G1 X47.733 Y113.81 E64.02444
G1 X47.73 Y126.648 E65.41094
G1 X47.589 Y126.808 E65.43397
G1 X47.564 Y126.814 E65.43675
G1 X34.725 Y126.816 E66.82336
G1 X34.583 Y126.648 E66.84712
G0 F4500 X34.627 Y126.487
G0 X34.651 Y126.463
G10
G0 X34.106 Y126.465
G0 X34.278 Y129.911
G0 X32.525 Y130.493
G11
G1 F1800 X45.364 Y130.491 E68.23373
G1 X45.477 Y130.582 E68.2494
G1 X45.45 Y130.833 E68.27666
G1 X32.686 Y143.596 E70.2261
G1 X32.528 Y143.641 E70.24384
G1 X32.359 Y143.477 E70.26927
G1 X32.358 Y130.664 E71.65308
G1 X32.525 Y130.493 E71.67889
G0 F4500 X32.725 Y130.493
G10
G0 X32.083 Y130.177
G0 X31.777 Y142.937
G0 X25.331 Y143.322
G0 X24.608 Y143.277
G11
G1 F1800 X24.742 Y143.438 E71.70151
G1 X24.745 Y151.786 E72.6031
G1 X169.857 Y151.786 E88.27519
G1 X169.86 Y143.44 E89.17656
G1 X169.996 Y143.277 E89.19949
G1 X173.286 Y143.277 E89.55481
G1 X173.286 Y132.331 E90.73698
G1 X173.286 Y129.102 E91.08571
G1 X169.998 Y129.102 E91.44081
G1 X169.857 Y128.921 E91.46559
G1 X169.857 Y88.716 E95.80773
G1 X24.745 Y88.716 E111.47983
G1 X24.744 Y128.929 E115.82283
G1 X24.681 Y129.05 E115.83757
G1 X24.545 Y129.102 E115.85329
G1 X21.316 Y129.102 E116.20202
G1 X21.316 Y143.277 E117.73292
G1 X24.608 Y143.277 E118.08846
G0 F4500 X24.736 Y143.431
G10
G0 X25.089 Y143.037
G0 X35.787 Y143.584
G0 X34.582 Y145.695
G11
G1 F1800 X34.627 Y145.537 E118.1062
G1 X47.39 Y132.773 E120.05563
G1 X47.613 Y132.731 E120.08014
G1 X47.733 Y132.915 E120.10387
G1 X47.73 Y145.698 E121.48443
G1 X47.567 Y145.864 E121.50956
G1 X34.741 Y145.866 E122.89476
G1 X34.582 Y145.695 E122.91998
G0 F4500 X34.627 Y145.537
G0 X34.652 Y145.512
G10
G0 X34.105 Y145.518
G0 X34.714 Y146.104
G0 X47.698 Y146.102
G0 X54.837 Y143.584
G0 X53.633 Y145.698
G11
G1 F1800 X53.677 Y145.537 E122.93801
G1 X66.483 Y132.73 E124.89401
G1 X66.691 Y132.746 E124.91654
G1 X66.783 Y132.86 E124.93236
G1 X66.78 Y145.698 E126.31887
G1 X66.617 Y145.864 E126.34399
G1 X53.793 Y145.866 E127.72898
G1 X53.633 Y145.698 E127.75404
G0 F4500 X53.677 Y145.537
G0 X53.701 Y145.513
G10
G0 X53.156 Y145.515
G0 X59.644 Y138.749
G0 X58.524 Y137.629
G0 X51.102 Y130.206
G11
G0 X51.409 Y130.659
G1 F1800 X51.575 Y130.493 E127.77939
G1 X64.414 Y130.491 E129.16601
G1 X64.527 Y130.582 E129.18167
G1 X64.543 Y130.79 E129.20421
G1 X51.736 Y143.596 E131.16021
G1 X51.575 Y143.64 E131.17823
G1 X51.409 Y143.477 E131.20336
G1 X51.407 Y132.915 E132.34405
G1 X51.409 Y130.659 E132.5877
G0 F4500 X51.55 Y130.518
G10
G0 X51.151 Y130.159
G0 X53.133 Y129.911
G0 X53.555 Y127.347
G0 X53.633 Y126.648
G11
G1 F1800 X53.677 Y126.487 E132.60573
G1 X66.483 Y113.68 E134.56173
G1 X66.691 Y113.696 E134.58426
G1 X66.783 Y113.81 E134.60008
G1 X66.782 Y125.874 E135.90299
G1 X66.78 Y126.648 E135.98659
G1 X66.614 Y126.814 E136.01194
G1 X53.775 Y126.816 E137.39855
G1 X53.633 Y126.648 E137.42231
G0 F4500 X53.677 Y126.487
G0 X53.701 Y126.463
G10
G0 X53.156 Y126.465
G0 X59.697 Y119.646
G0 X58.577 Y118.526
G0 X51.55 Y111.449
G11
G1 F1800 X51.575 Y111.443 E137.42509
G1 X64.414 Y111.441 E138.8117
G1 X64.527 Y111.532 E138.82737
G1 X64.543 Y111.74 E138.8499
G1 X51.736 Y124.546 E140.8059
G1 X51.575 Y124.59 E140.82392
G1 X51.409 Y124.427 E140.84905
G1 X51.409 Y111.609 E142.23339
G1 X51.55 Y111.449 E142.25643
G0 F4500 X51.575 Y111.443
G0 X51.75 Y111.443
G10
G0 X51.121 Y111.137
G0 X53.133 Y110.861
G0 X53.555 Y108.297
G0 X53.633 Y107.598
G11
G1 F1800 X53.677 Y107.437 E142.27445
G1 X66.482 Y94.631 E144.2303
G1 X66.691 Y94.646 E144.25293
G1 X66.783 Y94.76 E144.26875
G1 X66.78 Y107.598 E145.65526
G1 X66.614 Y107.764 E145.68061
G1 X53.775 Y107.766 E147.06722
G1 X53.633 Y107.598 E147.09098
G0 F4500 X53.677 Y107.437
G0 X53.701 Y107.413
G10
G0 X53.156 Y107.415
G0 X59.655 Y100.638
G0 X58.535 Y99.518
G0 X51.572 Y92.393
G11
G1 F1800 X64.417 Y92.391 E148.47824
G1 X64.53 Y92.488 E148.49432
G1 X64.542 Y92.691 E148.51629
G1 X51.736 Y105.496 E150.47213
G1 X51.575 Y105.54 E150.49016
G1 X51.409 Y105.377 E150.51529
G1 X51.407 Y94.815 E151.65598
G1 X51.409 Y92.561 E151.89941
G1 X51.572 Y92.393 E151.92469
G0 F4500 X51.772 Y92.393
G10
G0 X51.116 Y92.099
G0 X60.343 Y91.831
G0 X69.876 Y92.591
G0 X70.622 Y92.393
G11
G1 F1800 X83.467 Y92.391 E153.31195
G1 X83.58 Y92.488 E153.32804
G1 X83.592 Y92.691 E153.35
G1 X70.786 Y105.496 E155.30585
G1 X70.625 Y105.54 E155.32388
G1 X70.459 Y105.377 E155.349
G1 X70.459 Y92.561 E156.73313
G1 X70.622 Y92.393 E156.75841
G0 F4500 X70.822 Y92.393
G10
G0 X70.166 Y92.099
G0 X70.22 Y105.468
G0 X71.21 Y105.894
G0 X72.284 Y107.061
G0 X72.683 Y107.598
G11
G1 F1800 X72.727 Y107.437 E156.77644
G1 X85.532 Y94.631 E158.73228
G1 X85.741 Y94.646 E158.75491
G1 X85.833 Y94.76 E158.77074
G1 X85.83 Y107.598 E160.15724
G1 X85.664 Y107.764 E160.18259
G1 X72.825 Y107.766 E161.56921
G1 X72.683 Y107.598 E161.59296
G0 F4500 X72.727 Y107.437
G0 X72.751 Y107.413
G10
G0 X72.206 Y107.415
G0 X72.378 Y110.861
G0 X70.528 Y111.487
G11
G1 F1800 X70.657 Y111.441 E161.60775
G1 X83.464 Y111.441 E162.99091
G1 X83.577 Y111.532 E163.00658
G1 X83.593 Y111.74 E163.02911
G1 X70.786 Y124.546 E164.98511
G1 X70.625 Y124.59 E165.00314
G1 X70.459 Y124.427 E165.02826
G1 X70.459 Y111.609 E166.41261
G1 X70.528 Y111.487 E166.42774
G0 F4500 X70.657 Y111.441
G0 X70.721 Y111.441
G10
G0 X70.171 Y111.137
G0 X71.21 Y124.944
G0 X72.329 Y126.063
G0 X72.683 Y126.648
G11
G1 F1800 X72.727 Y126.487 E166.44577
G1 X85.533 Y113.68 E168.40177
G1 X85.741 Y113.696 E168.4243
G1 X85.82 Y113.794 E168.4379
G1 X85.833 Y113.865 E168.44569
G1 X85.83 Y126.648 E169.82626
G1 X85.664 Y126.814 E169.85161
G1 X72.825 Y126.816 E171.23822
G1 X72.683 Y126.648 E171.26198
G0 F4500 X72.727 Y126.487
G0 X72.751 Y126.463
G10
G0 X72.206 Y126.465
G0 X72.378 Y129.911
G0 X70.152 Y130.206
G11
G0 X70.459 Y130.659
G1 F1800 X70.625 Y130.493 E171.28733
G1 X83.464 Y130.491 E172.67395
G1 X83.577 Y130.582 E172.68961
G1 X83.593 Y130.79 E172.71214
G1 X70.799 Y143.584 E174.66624
G1 X70.625 Y143.64 E174.68598
G1 X70.459 Y143.477 E174.7111
G1 X70.459 Y130.659 E176.09545
G0 F4500 X70.6 Y130.518
G10
G0 X70.201 Y130.159
G0 X70.22 Y143.568
G0 X71.21 Y143.994
G0 X72.329 Y145.113
G0 X72.683 Y145.698
G11
G1 F1800 X72.727 Y145.537 E176.11347
G1 X85.533 Y132.73 E178.06948
G1 X85.741 Y132.746 E178.09201
G1 X85.833 Y132.86 E178.10783
G1 X85.832 Y144.924 E179.41074
G1 X85.83 Y145.698 E179.49433
G1 X85.667 Y145.864 E179.51946
G1 X72.843 Y145.866 E180.90445
G1 X72.683 Y145.698 E180.92951
G0 F4500 X72.727 Y145.537
G0 X72.751 Y145.513
G10
G0 X72.206 Y145.515
G0 X72.814 Y146.104
G0 X85.798 Y146.102
G0 X92.937 Y143.584
G0 X91.733 Y145.698
G11
G1 F1800 X91.777 Y145.537 E180.94753
G1 X104.54 Y132.773 E182.89697
G1 X104.673 Y132.715 E182.91264
G1 X104.791 Y132.746 E182.92581
G1 X104.883 Y132.86 E182.94163
G1 X104.88 Y145.698 E184.32814
G1 X104.717 Y145.864 E184.35326
G1 X91.893 Y145.866 E185.73826
G1 X91.733 Y145.698 E185.76331
G0 F4500 X91.777 Y145.537
G0 X91.801 Y145.513
G10
G0 X91.256 Y145.515
G0 X97.744 Y138.749
G0 X96.624 Y137.629
G0 X89.202 Y130.206
G11
G0 X89.509 Y130.659
G1 F1800 X89.675 Y130.493 E185.78867
G1 X102.514 Y130.491 E187.17528
G1 X102.627 Y130.582 E187.19095
G1 X102.646 Y130.761 E187.21039
G1 X102.6 Y130.833 E187.21961
G1 X89.836 Y143.596 E189.16905
G1 X89.675 Y143.64 E189.18707
G1 X89.509 Y143.477 E189.2122
G1 X89.509 Y130.659 E190.59654
G0 F4500 X89.65 Y130.518
G10
G0 X89.251 Y130.159
G0 X92.937 Y124.534
G0 X91.739 Y126.673
G11
G1 F1800 X91.744 Y126.52 E190.61308
G1 X104.583 Y113.68 E192.57412
G1 X104.791 Y113.696 E192.59665
G1 X104.883 Y113.81 E192.61247
G1 X104.88 Y126.648 E193.99897
G1 X104.714 Y126.814 E194.02433
G1 X91.88 Y126.816 E195.4104
G1 X91.739 Y126.673 E195.43209
G0 F4500 X91.744 Y126.52
G0 X91.777 Y126.487
G10
G0 X91.251 Y126.49
G0 X97.744 Y119.699
G0 X96.624 Y118.579
G0 X89.202 Y111.156
G11
G0 X89.509 Y111.609
G1 F1800 X89.675 Y111.443 E195.45744
G1 X102.514 Y111.441 E196.84406
G1 X102.627 Y111.532 E196.85972
G1 X102.646 Y111.711 E196.87917
G1 X102.6 Y111.783 E196.88839
G1 X89.836 Y124.546 E198.83783
G1 X89.675 Y124.59 E198.85585
G1 X89.509 Y124.427 E198.88098
G1 X89.509 Y111.609 E200.26532
G0 F4500 X89.65 Y111.468
G10
G0 X89.251 Y111.109
G0 X91.233 Y110.861
G0 X91.655 Y108.297
G0 X91.733 Y107.598
G11
G1 F1800 X91.777 Y107.437 E200.28335
G1 X104.582 Y94.631 E202.2392
G1 X104.791 Y94.646 E202.26183
G1 X104.883 Y94.76 E202.27765
G1 X104.88 Y107.598 E203.66415
G1 X104.782 Y107.74 E203.68279
G1 X104.714 Y107.764 E203.69057
G1 X91.875 Y107.766 E205.07719
G1 X91.733 Y107.598 E205.10094
G0 F4500 X91.777 Y107.437
G0 X91.801 Y107.413
G10
G0 X91.256 Y107.415
G0 X97.755 Y100.638
G0 X96.635 Y99.518
G0 X89.672 Y92.393
G11
G1 F1800 X102.458 Y92.391 E206.48183
G1 X102.532 Y92.404 E206.48995
G1 X102.63 Y92.488 E206.50389
G1 X102.642 Y92.691 E206.52585
G1 X89.836 Y105.496 E208.4817
G1 X89.675 Y105.54 E208.49972
G1 X89.509 Y105.377 E208.52485
G1 X89.509 Y92.561 E209.90898
G1 X89.672 Y92.393 E209.93426
G0 F4500 X89.872 Y92.393
G10
G0 X89.216 Y92.099
G0 X98.443 Y91.831
G0 X107.976 Y92.591
G0 X108.722 Y92.393
G11
G1 F1800 X121.567 Y92.391 E211.32152
G1 X121.68 Y92.488 E211.3376
G1 X121.695 Y92.663 E211.35657
G1 X121.65 Y92.733 E211.36556
G1 X108.886 Y105.496 E213.31499
G1 X108.725 Y105.54 E213.33302
G1 X108.559 Y105.377 E213.35814
G1 X108.559 Y92.561 E214.74227
G1 X108.722 Y92.393 E214.76755
G0 F4500 X108.922 Y92.393
G10
G0 X108.266 Y92.099
G0 X108.32 Y105.468
G0 X109.31 Y105.894
G0 X110.429 Y107.013
G0 X110.783 Y107.598
G11
G1 F1800 X110.827 Y107.437 E214.78558
G1 X123.632 Y94.631 E216.74143
G1 X123.761 Y94.616 E216.75545
G1 X123.933 Y94.76 E216.77968
G1 X123.93 Y107.598 E218.16618
G1 X123.764 Y107.764 E218.19154
G1 X110.925 Y107.766 E219.57815
G1 X110.783 Y107.598 E219.60191
G0 F4500 X110.827 Y107.437
G0 X110.851 Y107.413
G10
G0 X110.306 Y107.415
G0 X110.478 Y110.861
G0 X108.252 Y111.156
G11
G0 X108.559 Y111.609
G1 F1800 X108.725 Y111.443 E219.62726
G1 X121.564 Y111.441 E221.01387
G1 X121.677 Y111.532 E221.02954
G1 X121.696 Y111.711 E221.04898
G1 X121.65 Y111.783 E221.05821
G1 X108.886 Y124.546 E223.00764
G1 X108.725 Y124.59 E223.02567
G1 X108.559 Y124.427 E223.05079
G1 X108.559 Y111.609 E224.43514
G0 F4500 X108.7 Y111.468
G10
G0 X108.301 Y111.109
G0 X108.32 Y124.518
G0 X109.31 Y124.944
G0 X110.429 Y126.063
G0 X110.783 Y126.648
G11
G1 F1800 X110.827 Y126.487 E224.45316
G1 X123.59 Y113.723 E226.4026
G1 X123.723 Y113.665 E226.41827
G1 X123.841 Y113.696 E226.43144
G1 X123.933 Y113.81 E226.44727
G1 X123.93 Y126.648 E227.83377
G1 X123.764 Y126.814 E227.85912
G1 X110.925 Y126.816 E229.24574
G1 X110.783 Y126.648 E229.26949
G0 F4500 X110.827 Y126.487
G0 X110.851 Y126.463
G10
G0 X110.306 Y126.465
G0 X110.478 Y129.911
G0 X108.252 Y130.206
G11
G0 X108.559 Y130.659
G1 F1800 X108.725 Y130.493 E229.29485
G1 X121.564 Y130.491 E230.68146
G1 X121.677 Y130.582 E230.69713
G1 X121.693 Y130.79 E230.71966
G1 X108.886 Y143.596 E232.67566
G1 X108.725 Y143.64 E232.69369
G1 X108.559 Y143.477 E232.71881
G1 X108.559 Y130.659 E234.10316
G0 F4500 X108.7 Y130.518
G10
G0 X108.301 Y130.159
G0 X108.32 Y143.568
G0 X109.31 Y143.994
G0 X110.429 Y145.113
G0 X110.783 Y145.698
G11
G1 F1800 X110.827 Y145.537 E234.12118
G1 X123.633 Y132.73 E236.07718
G1 X123.841 Y132.746 E236.09971
G1 X123.933 Y132.915 E236.1205
G1 X123.93 Y145.698 E237.50106
G1 X123.767 Y145.864 E237.52619
G1 X110.943 Y145.866 E238.91118
G1 X110.783 Y145.698 E238.93623
G0 F4500 X110.827 Y145.537
G0 X110.851 Y145.513
G10
G0 X110.306 Y145.515
G0 X110.914 Y146.104
G0 X123.898 Y146.102
G0 X131.037 Y143.584
G0 X129.833 Y145.698
G11
G1 F1800 X129.877 Y145.537 E238.95426
G1 X142.683 Y132.73 E240.91026
G1 X142.891 Y132.746 E240.93279
G1 X142.983 Y132.86 E240.94861
G1 X142.98 Y145.698 E242.33512
G1 X142.817 Y145.864 E242.36024
G1 X129.993 Y145.866 E243.74523
G1 X129.833 Y145.698 E243.77029
G0 F4500 X129.877 Y145.537
G0 X129.901 Y145.513
G10
G0 X129.356 Y145.515
